X:1
T:Praise His Name Forever
T:Praise His Name Forever
T:Charles Hutchinson Gabriel
T:Charles Hutchinson Gabriel, 1901
T:Public Domain Courtesy of the Cyber Hymnal™
T:Public Domain Courtesy of the Cyber Hymnal™
C:Charles Hutchinson Gabriel
Z:Public Domain
Z:Courtesy of the Cyber Hymnal™
%%score ( 1 2 ) ( 3 4 )
L:1/8
Q:1/4=100
M:4/4
K:G
V:1 treble 
V:2 treble 
V:3 bass 
V:4 bass 
V:1
 [DG]2 D2 [EG]2 [FA]2 | [GB]>[Gc] [Gd]>[Ge] [Gd]2 [=FB]2 | [Ec]2 [CE]2 [DB]2 D2 | %3
w: 1.~Glo- ry, hon- or,|ma- jes- ty and pow- er|Be to Him now|
w: 2.~Songs of joy we|sing in ex- ul- ta- tion,|Of our king, Re-|
w: 3.~An- gels praise Him,|in the high- est glo- ry,|Cher- u- bim and|
 [^CB]>[CA] [CE]>[CB] [DA]4 | [DG]2 D2 [EG]2 [FA]2 | [GB]>[Gc] [Gd]>[Ge] [Gd]2 [GB]2 | %6
w: ris- en from the dead,|Who from death hath|tak- en ev- ery ter- ror,|
w: deem- er, Lord of all!|For He lives, o’er|sin and death vic- tor- ious;|
w: ser- a- phim a- dore;|While our hu- man|hearts a- wake the chor- us,|
 [Ge]2 [GA]2 [Gd]2 G2 | [Fd]>[Fc] [FB]>[FA] G4 ||"^Refrain" G4- G3/2 z/ G<c z/ | %9
w: And hath made the|grave a vic- tor’s bed.||
w: Earth and Heav’n His|might- y deeds ex- tol.|Praise * His name|
w: “Je- sus lives! He|lives for- ev- er- more!”||
 d4 [GB]>[B,D] [DG]>[GB] | [Fd]2 [Ec]2 [CE]2 [Ec]2 | [DB]>[CA] [B,G]>[CE] [B,D]2 z2 x/ | %12
w: |||
w: for- ev- er, Lift up|the voice in hon-|or of our ris- en|
w: |||
 G4- G3/2 z/ G<c z/ e/ | d4 [GB]>[B,D] [DG]>[GB] | [Fd]2 [Ec]2 [DB]2 [DA]2 | [DG]6 z2 |] %16
w: ||||
w: king! * Might- y to|de- liv- er, With an-|gels we His praise|will|
w: ||||
V:2
 x2 D2 x4 | x8 | x6 D2 | x8 | x2 D2 x4 | x8 | x6 G2 | x4 G4 || (E>EE>E E)E e/ x2 | %9
 (G3/2 G/ G3/2 G/) x4 | x8 | x17/2 | (E>E E>E E)E x3 | (G3/2 G/ G3/2 G/) x4 | x8 | x8 |] %16
V:3
 [G,B,]2 [F,A,]2 [E,B,]2 [D,D]2 | [G,D]>[G,A,] [G,B,]>[G,C] [G,B,]2 [G,D]2 | %2
w: ~ ~ ~ ~|~ ~ ~ ~ ~ ~|
 [C,C]2 [C,G,]2 [G,,G,]2 [B,,G,]2 | [A,,G,]>[A,,G,] [A,,G,]>[A,,G,] (F,2 C2) | %4
w: ~ ~ ~ ~|~ ~ ~ ~ ~ *|
 [G,B,]2 [F,A,]2 [E,B,]2 [D,D]2 | [G,D]>[G,A,] [G,B,]>[G,C] [G,B,]2 [G,D]2 | %6
w: ~ ~ ~ ~|~ ~ ~ ~ ~ ~|
 [C,C]2 [C,E]2 [B,,D]2 [B,,D]2 | [A,,D]>[A,,D] [D,D]>[D,C] [G,B,]4 || %8
w: ~ ~ ~ ~|~ ~ ~ ~ ~|
 [C,C]>[C,C] [C,C]>[C,C] [C,C] z [C,C] z x/ | [G,B,]>[G,B,] [G,B,]>[G,B,] [G,D]3/2 z/ z2 | %10
w: Praise His name for- ev- er,|praise His ho- ly name,|
 [D,A,]>[D,A,] [D,A,]>[D,A,] [D,F,]>[D,F,] [D,F,]>[D,F,] | G,2 G,2 z3/2 x3 | %12
w: Lift the voice in hon- or of our|ris- en|
 [C,C]>[C,C] [C,C]>[C,C] [C,C] z [C,C] z x | [G,B,]>[G,B,] [G,B,]>[G,B,] [G,D]3/2 z/ z2 | %14
w: king! Might- y to de- liv-|er, mer- ci- ful to|
 [D,A,]>[D,A,] [D,F,]>[D,F,] [D,G,]>[D,G,] [D,C]>[D,C] | [G,,B,]6 z2 |] %16
w: save, With the ang- els we His praise|will|
V:4
 x8 | x8 | x8 | x4 D,4 | x8 | x8 | x8 | x8 || x17/2 | x8 | x8 | G,2 G,2 (G,2 =F,<E,D,/) | x9 | x8 | %14
 x8 | x8 |] %16

